X: 1
T:My Father Gave Me an Acre of Ground  " "
M:6/8
L:1/8
Q:80
C:arr. Dorthy May
S:Air
K:HP
[| e|
G2{e}GAGA|
BA{e}GA3|
{gBd}B3f2d|  !
B2af2e|
G2{e}GAGA|
BAG{d}A3|  !
B2{gBd}Bc2{GdG}c|
{Gdc}dcBc2B|
{g}e2{A}efed|  !
fed{gef}e2B|
{g}e2{A}efed|
{gfg}fed{gef}e2B|  !
{d}A2B{e}G2B|
{gfg}fgaB3|
B2{gBd}Bc2{GdG}c|  !
{Gdc}dcB{GdG}c2[|
